X: 1
T: Fairy Queen, The
M: 4/4
L: 1/8
R: hornpipe
K: Dmaj
(3ABc || d2{e}d2 {c}d2AG | FDFA dAFD | G2FG E2ef | gecA dcBA |
c-~d3 d2AG | FDFA dAFD | G2FG E2ef | gecA d3z ||
|:d~f3 g2fe | da^ga baga | fdAF G2 ef |1 gecA gecA :|2 gecA d3z ||
